images/icons/logo.svg

<svg width="285" height="33" viewBox="0 0 285 33" fill="none" xmlns="http://www.w3.org/2000/svg">
<path fill-rule="evenodd" clip-rule="evenodd" d="M182.875 18.4032H193.483V20.8746H182.875V18.4032ZM6.45662 3.41L5.50707 28.2189V28.6493C5.50707 30.7523 6.12449 31.1827 9.44757 31.4215V32.5696C7.02655 32.3778 6.077 32.3304 4.74742 32.3304C3.4184 32.3304 2.46885 32.3778 0 32.5696V31.4215C3.32346 31.1829 3.79807 30.8002 3.8928 28.2191L4.89005 4.74879V4.46211C4.89005 2.26279 4.22534 1.78475 0.949552 1.59408V0.398986C2.80082 0.541756 3.51298 0.590107 4.84238 0.590107C6.59925 0.590107 7.54865 0.541751 9.35279 0.350856L18.1833 24.5382L27.1562 0.350856C29.2928 0.541751 30.2898 0.590107 31.7139 0.590107C32.9006 0.590107 33.6603 0.541756 35.4645 0.398986V1.59408C32.2362 1.78475 31.524 2.26279 31.524 4.41398V4.74879L32.0463 28.2191C32.0937 30.8002 32.521 31.1829 35.9394 31.4215V32.5696C32.9485 32.2823 31.8092 32.1867 30.005 32.1867C28.2009 32.1867 27.0615 32.2823 24.0706 32.5696V31.4215C27.2987 31.2306 28.0112 30.7047 28.0112 28.4579V28.2189L27.5837 3.45789L19.7498 24.777L19.1804 26.3549L18.5157 28.1233L17.8985 29.9399L17.3762 31.5173H16.664L16.1423 29.9874L15.4773 28.1233L14.8127 26.2593L14.2428 24.5861L6.45662 3.41ZM42.1077 18.8499C42.5826 13.3529 44.3866 10.5323 47.4254 10.5323C50.5109 10.5323 52.0777 13.2094 52.3627 18.8499H42.1077ZM48.2797 31.3741C43.9593 31.3741 42.0605 28.028 42.0129 20.5707H56.1607C56.0657 13.2094 53.075 9.2895 47.4726 9.2895C41.7753 9.2895 38.2149 13.9267 38.2149 21.288C38.2149 28.6493 41.7753 32.9523 47.8998 32.9523C52.5524 32.9523 55.591 30.0355 56.2084 25.1119H54.3091C53.7394 29.175 51.6504 31.3741 48.2797 31.3741ZM58.9875 11.0584V10.1979C61.6934 9.95913 63.3076 9.67199 65.2543 9.09838C65.4916 10.8671 65.5865 11.6318 65.6816 13.0659V13.5917C66.726 10.8671 68.7675 9.2895 71.2359 9.2895C73.6098 9.2895 75.3668 10.8671 75.3668 13.1615C75.3668 14.5475 74.5599 15.4561 73.3729 15.4561C72.2806 15.4561 71.4267 14.7868 71.4267 13.8309C71.4267 13.7351 71.4737 13.5442 71.5211 13.3529L71.6159 12.8746V12.4447C71.6159 11.7753 71.0462 11.2972 70.1916 11.2972C67.7231 11.2972 66.1562 14.3089 66.1562 19.041V29.0318C66.1562 31.0869 66.6312 31.4696 69.5268 31.6131V32.5694C66.9159 32.3301 65.9189 32.282 64.2572 32.282C62.5479 32.282 61.5511 32.3301 58.9398 32.5694V31.6131C61.8361 31.4696 62.3582 31.0869 62.3582 29.0318V14.1653V13.4005C62.3108 11.3449 62.0732 11.1061 59.6047 11.0584H58.9875ZM93.5281 8.85982V16.7466H92.4834C91.6289 12.5881 89.8726 10.5802 86.9758 10.5802C83.4156 10.5802 81.3262 14.4519 81.3262 21.2878C81.3262 27.9801 83.1783 31.3741 86.8333 31.3741C89.7773 31.3741 91.5333 29.2705 92.1038 25.0642H94.05C93.4328 30.1787 90.7264 32.9521 86.4539 32.9521C80.9466 32.9521 77.1958 28.2668 77.1958 21.2878C77.1958 14.1653 80.9938 9.2895 86.5962 9.2895C88.6377 9.2895 89.9196 9.81521 91.4392 11.2972L92.7208 8.85982H93.5281ZM101.324 18.8499C101.799 13.3529 103.603 10.5323 106.642 10.5323C109.728 10.5323 111.294 13.2094 111.58 18.8499H101.324ZM107.497 31.3741C103.176 31.3741 101.277 28.028 101.229 20.5707H115.377C115.282 13.2094 112.292 9.2895 106.69 9.2895C100.992 9.2895 97.4315 13.9267 97.4315 21.288C97.4315 28.6493 100.992 32.9523 107.117 32.9523C111.769 32.9523 114.808 30.0355 115.425 25.1119H113.526C112.956 29.175 110.868 31.3741 107.497 31.3741ZM128.525 31.6603C125.107 31.6603 123.303 28.0757 123.303 21.2399C123.303 14.3087 124.965 10.915 128.383 10.915C131.896 10.915 133.7 14.5475 133.7 21.5749C133.7 28.2189 131.943 31.6603 128.525 31.6603ZM137.451 27.5976V0C135.077 0.637312 132.94 1.01979 130.282 1.30694V2.11957C133.273 2.11957 133.652 2.45392 133.652 4.93969V13.3052C131.896 10.4369 130.519 9.57596 127.956 9.57596C122.876 9.57596 119.315 14.4043 119.315 21.2878C119.315 28.1712 122.923 32.9998 128.098 32.9998C130.804 32.9998 132.656 31.7565 133.985 29.0794C134.175 30.8958 134.175 31.0867 134.65 32.904C136.596 32.2818 137.404 32.0909 140.204 31.7565L140.917 31.6605V30.8479C137.736 30.7526 137.451 30.5135 137.451 27.5976ZM146.608 18.8499C147.083 13.3529 148.887 10.5323 151.925 10.5323C155.011 10.5323 156.577 13.2094 156.862 18.8499H146.608ZM152.78 31.3741C148.459 31.3741 146.56 28.028 146.513 20.5707H160.661C160.566 13.2094 157.574 9.2895 151.973 9.2895C146.275 9.2895 142.714 13.9267 142.714 21.288C142.714 28.6493 146.275 32.9523 152.399 32.9523C157.052 32.9523 160.091 30.0355 160.708 25.1119H158.809C158.24 29.175 156.15 31.3741 152.78 31.3741ZM164.69 33V25.0163L165.734 24.9686C166.589 29.3189 168.583 31.4215 171.907 31.4215C174.708 31.4215 176.797 29.5572 176.797 27.1194C176.797 25.4941 175.895 24.3948 173.568 23.3429L171.763 22.5303L169.58 21.5268C166.114 19.9015 165.022 18.563 165.022 15.7907C165.022 12.0143 167.966 9.43273 172.144 9.43273C173.996 9.43273 175.372 9.86333 176.987 10.9624L177.793 9.00258H178.648V16.4115H177.556C177.128 12.5879 175.562 10.7715 172.571 10.7715C170.055 10.7715 168.109 12.4921 168.109 14.7391C168.109 16.651 168.82 17.2723 173.141 19.1842L175.135 20.0452C178.743 21.6221 180.025 23.1518 180.025 25.9721C180.025 29.9874 176.845 32.8559 172.381 32.8559C170.197 32.8559 168.488 32.2818 166.685 30.8479L165.544 32.9998H164.69V33ZM206.425 16.5078C208.941 16.5078 210.365 16.9377 211.457 18.0373C212.549 19.1366 213.166 21.192 213.166 23.4866C213.166 28.267 210.792 30.9439 206.567 30.9439H204.858C202.342 30.9439 201.914 30.5614 201.914 28.4579V16.5078H206.425ZM201.914 2.02399H205.949C209.937 2.02399 211.694 3.98361 211.694 8.42944C211.694 10.6278 211.172 12.2059 210.128 13.4484C209.083 14.6435 207.801 15.0258 205.142 15.0258H201.914V2.02399ZM215.92 8.33364C215.92 5.84787 214.875 3.64879 213.071 2.26256C211.457 1.06791 209.605 0.541515 206.52 0.541515H194.033V1.73709C197.451 1.92821 197.926 2.31092 197.926 4.89179V28.0757C197.926 30.657 197.546 30.9914 194.033 31.2783V32.4255H206.044C209.558 32.4255 211.457 31.9951 213.45 30.7523C215.825 29.2229 217.392 26.3067 217.392 23.2955C217.392 20.7139 216.3 18.3718 214.447 16.9377C213.45 16.1732 212.406 15.7426 210.697 15.408C214.116 14.1176 215.92 11.6797 215.92 8.33364ZM225.141 18.8499C225.615 13.3529 227.421 10.5323 230.458 10.5323C233.545 10.5323 235.111 13.2094 235.396 18.8499H225.141ZM231.313 31.3741C226.992 31.3741 225.093 28.028 225.045 20.5707H239.193C239.099 13.2094 236.108 9.2895 230.506 9.2895C224.808 9.2895 221.248 13.9267 221.248 21.288C221.248 28.6493 224.808 32.9523 230.932 32.9523C235.586 32.9523 238.625 30.0355 239.24 25.1119H237.341C236.773 29.175 234.683 31.3741 231.313 31.3741ZM241.707 11.2496V10.4372C244.462 10.0547 246.076 9.67221 247.973 9.00304C248.212 10.1021 248.354 11.3451 248.449 13.1615C250.157 10.5804 252.104 9.43319 254.858 9.43319C257.706 9.43319 260.175 10.9152 261.126 13.2571C261.6 14.4043 261.837 15.7428 261.837 17.5592V29.0318C261.837 31.0869 262.312 31.4696 265.207 31.6131V32.5696C262.692 32.3301 261.742 32.282 260.034 32.282C258.276 32.282 257.328 32.3301 254.858 32.5696V31.6131C257.421 31.5173 258.039 31.0393 258.039 29.1273V17.4162C258.039 13.2571 256.806 11.5844 253.766 11.5844C250.538 11.5844 248.83 13.6398 248.83 17.5592V29.1273C248.83 31.0393 249.446 31.5173 251.915 31.6131V32.5696C249.446 32.3301 248.497 32.282 246.787 32.282C245.125 32.282 244.129 32.3301 241.659 32.5696V31.6131C244.555 31.4696 245.029 31.0869 245.029 29.0318V14.2608V13.5442C244.984 11.5844 244.699 11.2972 242.325 11.2972C242.182 11.2972 241.944 11.2496 241.707 11.2496ZM267.054 32.4255L279.92 11.1059H274.079C270.994 11.1059 270.235 11.7753 268.525 16.0772H267.576L268.668 9.86333H285V9.86357L272.086 31.1827H277.64C280.871 31.1827 282.198 29.8918 283.623 25.5422H284.622L283.386 32.4255H267.054Z" fill="white"/>
</svg>

<svg xmlns="http://www.w3.org/2000/svg" width="285" height="33" fill="none"><path fill="#fff" fill-rule="evenodd" d="M182.875 18.403h10.608v2.472h-10.608v-2.472ZM6.457 3.41l-.95 24.809v.43c0 2.103.617 2.534 3.94 2.773v1.148c-2.42-.192-3.37-.24-4.7-.24-1.329 0-2.278.048-4.747.24v-1.148c3.323-.24 3.798-.622 3.893-3.203L4.89 4.75v-.287c0-2.2-.665-2.677-3.94-2.868V.4C2.8.542 3.513.59 4.842.59 6.6.59 7.55.542 9.352.35l8.831 24.188L27.156.351c2.137.19 3.134.24 4.558.24 1.187 0 1.946-.05 3.75-.192v1.195c-3.228.19-3.94.669-3.94 2.82v.335l.522 23.47c.048 2.581.475 2.964 3.893 3.203v1.148c-2.99-.288-4.13-.383-5.934-.383-1.804 0-2.944.095-5.934.383v-1.148c3.228-.191 3.94-.717 3.94-2.964v-.24l-.427-24.76-7.834 21.319-.57 1.578-.664 1.768-.617 1.817-.523 1.577h-.712l-.522-1.53-.665-1.864-.664-1.864-.57-1.673L6.457 3.41Zm35.65 15.44c.476-5.497 2.28-8.318 5.318-8.318 3.086 0 4.653 2.677 4.938 8.318H42.108Zm6.173 12.524c-4.32 0-6.22-3.346-6.267-10.803H56.16c-.095-7.362-3.086-11.282-8.688-11.282-5.698 0-9.258 4.638-9.258 11.999 0 7.361 3.56 11.664 9.685 11.664 4.652 0 7.691-2.916 8.308-7.84H54.31c-.57 4.063-2.659 6.262-6.03 6.262Zm10.707-20.316v-.86c2.706-.239 4.32-.526 6.267-1.1.238 1.77.332 2.534.428 3.968v.526c1.044-2.725 3.085-4.303 5.554-4.303 2.374 0 4.13 1.578 4.13 3.873 0 1.385-.806 2.294-1.993 2.294-1.092 0-1.946-.67-1.946-1.625 0-.096.047-.287.094-.478l.095-.478v-.43c0-.67-.57-1.148-1.424-1.148-2.469 0-4.036 3.012-4.036 7.744v9.99c0 2.056.475 2.439 3.37 2.582v.956c-2.61-.239-3.607-.287-5.269-.287-1.71 0-2.706.048-5.317.287v-.956c2.896-.143 3.418-.526 3.418-2.581V13.4c-.047-2.056-.285-2.295-2.753-2.343h-.617ZM93.528 8.86v7.887h-1.045c-.854-4.159-2.61-6.167-5.507-6.167-3.56 0-5.65 3.872-5.65 10.708 0 6.692 1.852 10.086 5.507 10.086 2.944 0 4.7-2.104 5.27-6.31h1.947c-.617 5.115-3.324 7.888-7.596 7.888-5.507 0-9.258-4.685-9.258-11.664 0-7.123 3.798-11.998 9.4-11.998 2.042 0 3.324.525 4.843 2.007l1.282-2.437h.807Zm7.796 9.99c.475-5.497 2.279-8.318 5.318-8.318 3.086 0 4.652 2.677 4.938 8.318h-10.256Zm6.173 12.524c-4.321 0-6.22-3.346-6.268-10.803h14.148c-.095-7.362-3.085-11.282-8.687-11.282-5.698 0-9.258 4.638-9.258 11.999 0 7.361 3.56 11.664 9.685 11.664 4.652 0 7.691-2.916 8.308-7.84h-1.899c-.57 4.063-2.658 6.262-6.029 6.262Zm21.028.286c-3.418 0-5.222-3.584-5.222-10.42 0-6.931 1.662-10.325 5.08-10.325 3.513 0 5.317 3.633 5.317 10.66 0 6.644-1.757 10.085-5.175 10.085Zm8.926-4.062V0c-2.374.637-4.511 1.02-7.169 1.307v.813c2.991 0 3.37.334 3.37 2.82v8.365c-1.756-2.868-3.133-3.729-5.696-3.729-5.08 0-8.641 4.828-8.641 11.712 0 6.883 3.608 11.712 8.783 11.712 2.706 0 4.558-1.244 5.887-3.92.19 1.816.19 2.007.665 3.824 1.946-.622 2.754-.813 5.554-1.148l.713-.096v-.812c-3.181-.095-3.466-.334-3.466-3.25Zm9.157-8.748c.475-5.497 2.279-8.318 5.317-8.318 3.086 0 4.652 2.677 4.937 8.318h-10.254Zm6.172 12.524c-4.321 0-6.22-3.346-6.267-10.803h14.148c-.095-7.362-3.087-11.282-8.688-11.282-5.698 0-9.259 4.638-9.259 11.999 0 7.361 3.561 11.664 9.685 11.664 4.653 0 7.692-2.916 8.309-7.84h-1.899c-.569 4.063-2.659 6.262-6.029 6.262ZM164.69 33v-7.984l1.044-.047c.855 4.35 2.849 6.453 6.173 6.453 2.801 0 4.89-1.865 4.89-4.303 0-1.625-.902-2.724-3.229-3.776l-1.805-.813-2.183-1.003c-3.466-1.626-4.558-2.964-4.558-5.736 0-3.777 2.944-6.358 7.122-6.358 1.852 0 3.228.43 4.843 1.53l.806-1.96h.855v7.409h-1.092c-.428-3.824-1.994-5.64-4.985-5.64-2.516 0-4.462 1.72-4.462 3.967 0 1.912.711 2.533 5.032 4.445l1.994.861c3.608 1.577 4.89 3.107 4.89 5.927 0 4.015-3.18 6.884-7.644 6.884-2.184 0-3.893-.574-5.696-2.008L165.544 33h-.854Zm41.735-16.492c2.516 0 3.94.43 5.032 1.53 1.092 1.099 1.709 3.154 1.709 5.449 0 4.78-2.374 7.457-6.599 7.457h-1.709c-2.516 0-2.944-.383-2.944-2.486v-11.95h4.511Zm-4.511-14.484h4.035c3.988 0 5.745 1.96 5.745 6.405 0 2.199-.522 3.777-1.566 5.02-1.045 1.194-2.327 1.577-4.986 1.577h-3.228V2.024Zm14.006 6.31c0-2.486-1.045-4.685-2.849-6.071-1.614-1.195-3.466-1.721-6.551-1.721h-12.487v1.195c3.418.191 3.893.574 3.893 3.155v23.184c0 2.581-.38 2.915-3.893 3.202v1.148h12.011c3.514 0 5.413-.43 7.406-1.674 2.375-1.53 3.942-4.445 3.942-7.456 0-2.582-1.092-4.924-2.945-6.358-.997-.765-2.041-1.195-3.75-1.53 3.419-1.29 5.223-3.728 5.223-7.074Zm9.221 10.516c.474-5.497 2.28-8.318 5.317-8.318 3.087 0 4.653 2.677 4.938 8.318h-10.255Zm6.172 12.524c-4.321 0-6.22-3.346-6.268-10.803h14.148c-.094-7.362-3.085-11.282-8.687-11.282-5.698 0-9.258 4.638-9.258 11.999 0 7.361 3.56 11.664 9.684 11.664 4.654 0 7.693-2.916 8.308-7.84h-1.899c-.568 4.063-2.658 6.262-6.028 6.262Zm10.394-20.124v-.813c2.755-.382 4.369-.765 6.266-1.434.239 1.1.381 2.342.476 4.159 1.708-2.582 3.655-3.729 6.409-3.729 2.848 0 5.317 1.482 6.268 3.824.474 1.147.711 2.486.711 4.302v11.473c0 2.055.475 2.438 3.37 2.581v.957c-2.515-.24-3.465-.288-5.173-.288-1.758 0-2.706.048-5.176.288v-.957c2.563-.096 3.181-.574 3.181-2.486v-11.71c0-4.16-1.233-5.833-4.273-5.833-3.228 0-4.936 2.056-4.936 5.975v11.568c0 1.912.616 2.39 3.085 2.486v.957c-2.469-.24-3.418-.288-5.128-.288-1.662 0-2.658.048-5.128.288v-.957c2.896-.143 3.37-.526 3.37-2.581V13.544c-.045-1.96-.33-2.247-2.704-2.247-.143 0-.381-.047-.618-.047Zm25.347 21.175 12.866-21.32h-5.841c-3.085 0-3.844.67-5.554 4.972h-.949l1.092-6.214H285l-12.914 21.32h5.554c3.231 0 4.558-1.291 5.983-5.64h.999l-1.236 6.883h-16.332Z" clip-rule="evenodd"/></svg>
